icons/volume-off-vibrate-fill.svg

<svg xmlns="http://www.w3.org/2000/svg" width="24" height="24" fill="none"><g clip-path="url(#a)"><g><path fill="#121212" d="M19.3896 3.16111L20.8026 4.57511L18.3276 7.05011L20.8026 9.5251L18.3276 12.0001L20.8026 14.4761L18.3276 16.9511L20.8026 19.4261L19.3886 20.8401L15.4996 16.9501L17.9746 14.4761L15.4996 12.0001L17.9746 9.5251L15.4996 7.05011L19.3896 3.16111ZM12.9996 19.9451C12.9997 20.0398 12.9728 20.1326 12.9222 20.2127C12.8716 20.2927 12.7993 20.3568 12.7137 20.3973C12.6281 20.4379 12.5327 20.4533 12.4387 20.4417C12.3447 20.4302 12.2559 20.3922 12.1826 20.3321L6.88962 15.9991L2.99962 16.0001C2.7344 16.0001 2.48005 15.8947 2.29251 15.7072C2.10497 15.5197 1.99962 15.2653 1.99962 15.0001V9.00011C1.99962 8.73489 2.10497 8.48054 2.29251 8.293C2.48005 8.10546 2.7344 8.00011 2.99962 8.00011L5.58362 7.99811L1.80762 4.22211L3.22162 2.80811L12.9996 12.5861V19.9451ZM12.8866 3.73911C12.9596 3.82827 12.9995 3.9399 12.9996 4.05511V9.75711L9.28162 6.04011L12.1826 3.66811C12.2334 3.62644 12.2919 3.59521 12.3548 3.57617C12.4177 3.55714 12.4837 3.55069 12.5491 3.5572C12.6145 3.5637 12.678 3.58302 12.7359 3.61406C12.7938 3.6451 12.845 3.68725 12.8866 3.73811V3.73911Z"/></g></g><defs><clipPath id="a"><rect width="24" height="24" fill="white"/></clipPath></defs></svg>

<svg width="24" height="24" fill="none" xmlns="http://www.w3.org/2000/svg"><g clip-path="url(#a)"><path d="m19.39 3.161 1.413 1.414-2.475 2.475 2.475 2.475L18.328 12l2.475 2.476-2.475 2.475 2.475 2.475-1.414 1.414-3.89-3.89 2.476-2.474L15.5 12l2.475-2.475L15.5 7.05l3.89-3.889ZM13 19.945a.5.5 0 0 1-.817.387L6.89 16H3a1 1 0 0 1-1-1V9a1 1 0 0 1 1-1l2.584-.002-3.776-3.776 1.414-1.414L13 12.586v7.36ZM12.887 3.74a.5.5 0 0 1 .113.316v5.702L9.282 6.04l2.9-2.372a.5.5 0 0 1 .705.07v.001Z" /></g><defs><clipPath id="a"><path fill="#fff" d="M0 0h24v24H0z"/></clipPath></defs></svg>
